X:1
T:Tarantelle
T:Tarantelle
T:Op. 43.
T:Frédéric Chopin
T:1879
T:1879
T:1879
T:1879
T:1879
T:1879
T:1879
T:1879
T:1879
T:1879
C:Frédéric Chopin
Z:1879
%%score { ( 1 3 4 ) | ( 2 5 ) }
L:1/8
Q:1/4=190
M:6/8
K:Ab
V:1 treble nm="Piano" snm="Pno."
V:3 treble 
V:4 treble 
V:2 bass 
V:5 bass 
V:1
!p!"^Presto" !2!E2 (!1!E | !5!e2) (!4!e E2) (E | !5!e2) (!4!e E2) (!3!E | %3
 !2!=D2) (!3!D !2!_D2) (!3!D || !1!C!2!D!2!=D EGF | [B,E]2) (!1!!3![B,E] !2!!5![DA]2) ([DA] | %6
 G,2) (G, !5!G2) (G | _G,2) (G, !5!_G2) (G | F6-) | F2 (!1!!2![EF] !4!!5![Bd]2) ([Bd] | %10
 !1!!2![DE]2) ([DE] !3!!5![Ac]2) (c | !4!B2) (!5!B !4!A2) (!5!A | C!2!D!2!=D EGF | %13
 [B,E]2) (!1!!3![B,E] !2!!5![DA]2) ([DA] | G,2) (G, G2) (G | _G,2) (G, _G2) (G | F6-) | %17
 F2 (!1!!2![EF] !4!!5![Bd]2) ([Bd] | !1!!2![DE]2) ([DE] !3!!5![Ac]2) (c | %19
 !4!B2) (!5!B !4!A2) (!3!A |!f! (!>![Ee]3) !4!d!1!AB | !3!_c!1!_GA !3!B!1!_FG | %22
 !3!A!1!E_F !3!_G!1!DE | _F_CD !>!E3-) | (E3 !4!DED |[K:bass] !3!_CDC !2!B,!4!CB, | %26
 !2!A,!4!B,A, !2!_G,!4!A,G, | !2!_F,!4!_G,F, E,3) |[K:treble]!ff! (!>![ge']3 !4!d'!1!ab | %29
 !3!_c'!1!_ga !3!b!1!_fg | a!1!e_f _g!1!de | _f!1!_cd !>!e3-) | (e3!>(! __B!4!ed | %33
 !1!__B!4!_c!3!B !2!A!4!_B!3!A | !1!G!3!A!2!G !4!B=cB | !3!A3)!>)! z z2 |!f! (!>![Ee]3 !4!d!1!AB | %37
 !3!_c!1!_GA B!1!_FG | A!1!E_F _G!1!DE | _F!1!_CD !>!E3-) |!p! (E3 !4!DED | %41
[K:bass] !3!_CDC !2!B,!4!CB, | !2!A,!4!B,A, !2!_G,!4!A,G, | !2!_F,!4!_G,F, E,3) | %44
[K:treble]!ff! (!>![ee']3 !4!d'!1!ab | !3!_c'!1!_ga b!1!_fg | a!1!e_f _g!1!de | _f!1!_cd!>(! e3-) | %48
 (e3 __B!4!ed | !1!__B!4!_c!3!B !2!A!4!_B!3!A | !1!G!3!A!2!G!>)! !4!B=cB | A3) z2!p! (!2!=A | %52
 !3!B2 !2!B !3!B2 !4!c | !2!A2 !3!A !2!A{/!4!B}!3!A!1!G |!<(! !2!AB!1!c de!4!_f!<)! | %55
!>(! !1!A2 !3!A !2!A)!>)! z !1!=A | !3!B2 !2!B !3!B2 !4!c | !2!A2 !3!A !2!A{/!4!B}!3!A!1!G | %58
!<(! !2!AB!1!c de!4!_f!<)! |!>(! A3- A2!>)! (=A | !2!B2 B !1!B2 c | %61
 !1!A2 !3!A !2!A{/!4!B}!3!A!1!G | !2!AB!1!c de!4!_f | !1!A2 !3!A !2!A) z (!1!=A | %64
 !3!B2 !2!B !3!B2 !4!c | !2!A2 !3!A !2!A{/!4!B}!3!A!1!G |!<(! !2!AB!1!c de!4!_f!<)! |!>(! a6)!>)! | %68
 (c'2 c)!ff! (c'2 c) | (!3![f_ad']2 c) (c'2 c) | (!2![=egbd']2 c) (c'2 c) | %71
 (!3![f_ad']2 c) (c'2 c) | [_egd'_e']2 z!<(! (!2!E!1!=EF | ^F!1!GA =A!4!B!1!=B | cd!1!=d e!1!=ef | %75
 ^f!1!ga !1!=a!3!b!4!=b!<)! | c'2 c)!ff! (c'2 c) | (!3![f_ad']2 c) (c'2 c) | %78
 (!2![=egbd']2 c) (c'2 c) | (!3![f_ad']2 c) (c'2 c) | [_egd'_e']2 z (!2!E!<(!!1!=EF | %81
 ^F!1!GA =A!4!B!1!=B | cd!1!=d!<)!!>(! !3!e!4!fe | !5!f!3!e!4!f e!1!F!2!E)!>)! | %84
!>(! (!4!_G3-!>)! GFE | !3!F2 F !2!F=GA | !3!G2 G !2!GAB | !3!A2 !4!A !5!A2 !4!A | %88
 !5!A2 !4!A !5!A2 A | A2"_cresc." !4!A !5!A2 A | !5!A2 !4!A !5!^G2 !4!G | !5!=A2 A!>(! !4!=GAG | %92
"^͡" !34!_G3- GFE!>)! |!p! !3!F2 F !2!F=GA | !3!G2 G !2!GAB | !3!A2 A"_cresc." !4!=A2 !3!A | %96
 !4!B2 !3!B !4!=B2 !3!B | !4!c2 !3!c !4!d2 !3!d | !2!c2 a!>(! a2 g | g2 !4!f!>)! !5!f2) (!3!F | %100
!>(! !4!_G3-!>)! GFE | !3!F2 F F=GA | !3!G2 G GAB | !3!A2 !4!A !5!A2 !4!A | !5!A2 !4!A !5!A2 A | %105
 A2"_cresc." !4!A !5!A2 !4!A | !5!A2 !4!A !5!^G2 !4!G | !5!=A2 A!>(! !4!=GAG | %108
"^͡" !34!_G3- GFE!>)! | !3!F2 F !2!F=GA | !3!G2 G !2!GAB | !3!A2 !4!A"_cresc." =A2 !3!A | %112
 !4!B2 !3!B !4!=B2 !3!B | !4!c2 !3!c !4!d2 !3!d | !2!c2 a!>(! a2 g | g2 !4!f !5!f2!>)! !2!F) | %116
 !>!c2 z (!4!d'e'd' | !3!c'3 !4!bc'b | !3!a3 gag | !3!f3 efe | !3!d3 cdc | !3!B3 ABA | %122
 G2 G{GB} !>!A2 G | G3 c3) | !>!c'2 z!8va(!!>(! (!4!d''e''d'' | !3!c''3 !4!b'c''b' | %126
 !3!a'3 !4!g'a'g' | !3!f'3 !4!e'f'e' | !3!d'3 !4!c'd'c'!8va)! | !3!b3 !4!aba | g2 g{gb} a2 g!>)! | %131
 g2) (c' c2) (!5!c |"^͡" (!>!!34!_G3-) GFE | !3!F2 F !2!F=GA | G2 G !2!GAB | %135
 !3!A2 !4!A !5!A2 !4!A | !5!A2 !4!A !5!A2 A | A2 !4!A !5!A2 !4!A | !5!A2 !4!A !5!^G2 !4!G | %139
 !5!=A2 A!>(! !4!=GAG |"^͡" !34!_G3- GFE!>)! |!p! !3!F2 F !2!F=GA | !3!G2 G !2!GAB | %143
 !3!A2 A"_cresc." !4!=A2 !3!A | !4!B2 !3!B !4!=B2 !3!B | !4!c2 !3!c !4!d2 !3!d | !2!c2 a!>(! a2 g | %147
 g2 !4!f!>)! !5!f2 F) |!>(! [EAc]2!>)! z!>(! (!4!BcB!>)! |!>(! !3!A2) (!4!A!>)! !5!c2 c | %150
 !3!A2 A c2 c | !4!BcB G!1!F!3!E) |!>(! [Ae]2!>)! z!>(! (!4!BcB!>)! |!>(! A2) (A!>)! !5!c2 c | %154
 !3!A2 A c2 c | BcB !3!=ABe) |!>(! [Ac]2!>)! z!>(! (!4!BcB!>)! |!>(! !3!A2) (!4!A!>)! !5!c2 c | %158
 !3!A2 A c2 c | BcB G!1!F!3!E) |!>(! [Ac]2!>)! z!>(! (!4!BcB!>)! |!>(! !3!A2) (!4!A!>)! !5!c2 c | %162
 !3!A2 A !5!c2 c | !4!BeE eEe) |!ff! (!>!!2!_c"_poco"de !1!_f_g"_a"a | %165
 !4!b"_poco"!1!_c'd' e'"_più"_f'd' |"_animato" !1!_c'!4!ba _g_f!3!e | d!1!_c!2!A Be(!1!E) | %168
 (!1!_F)_GA !4!B!1!_cd | e!1!_f_g ab_c' | !2!a!4!b!3!a !2!_g!4!a!3!g | !1!_f!4!_g!3!f !2!e3) | %172
 (!>!!1!_f3 _gab | !1!_c'd'e'!8va(! !1!_f'!3!_g'!4!a' | !2!_g'!3!a'!1!_f' !3!e'f'd'!8va)! | %175
 !1!_c'!4!d'!3!c' be'e) | (!4!ba_g ag_f | !4!_g_fe !4!fed | =c!>(!!3!=B_B =A!4!_A=G | %179
 _GF!3!=E _E=D!>)!!2!_D) |!p![Q:1/4=205]"^Più animato" (C!2!D!2!=D EGF | %181
 [B,E]2) (!1!!3![B,E] !2!!5![DA]2) ([DA] | D3) !5!G2 (G | G,2) (G, !5!_G2) (G | F6-) | %185
 F2 (!1!!2![EF] !4!!5![Bd]2) ([Bd] | [DE]2) ([DE] !3!!5![Ac]2) (c | !4!B2) (!5!B !4!A2) (!5!A | %188
 C(!2!D!2!=D) EGF | [B,E]2) ([B,E] !2!!5![DA]2) ([DA] | D3) !5!G2 (G | G,2) (G, !5!_G2) (G | %192
 !>!F6-) | F2 (!1!!2![EF] !4!!5![Bd]2) ([Bd] | [DE]2) ([DE] !3!!5![Ac]2) (c | %195
 !4!B2) (!5!B !4!A2) !3!A |!f! ([Ee]3 !4!d!1!AB | _c!1!_GA B!1!_FG | A!1!E_F _G!1!DE | %199
 _F!1!_CD !>!E3- | E3 DED |[K:bass] !3!_CDC !2!B,!4!CB, | !2!A,!4!B,A, !2!_G,!4!A,G, | %203
 !2!_F,!4!_G,F, E,3) |[K:treble] !>!e'3 !>!!5!e'3 | !>!e'3 !>!e'3 | !>!e'3 !>!e'3 | %207
 (!3!_f_cd"^͡͡" !>!!2 4!e3-) | (e3!>(! __B!4!ed | !1!__B!4!_c!3!B !2!A!4!_B!3!A | %210
 !1!G!3!A!2!G !4!B=c!>)!B | !3!A3) z2 z |!f! (!>!e6- | e6 | A!1!E_F _G!1!DE | _F!1!_CD !>!E3-) | %216
!p! (E3 !4!DED |[K:bass] !3!_CDC !2!B,!4!CB, | !2!A,!4!B,!3!A, !2!_G,!4!A,G, | %219
 !2!_F,!4!_G,F, E,3) |[K:treble]!f! !>![ee']3 (!>!!4![dbd']!2!=f=g) | %221
 (!>!!4![_ca_c']!2!e_f) (!>![B_gb]!2!de) | (!>![A_fa]!2!_cd) ([_Ge_g]!2!Bc) | %223
 (!>![_Fd_f]!2!AB) (!>!e3- | e3 !4!ded | !1!__B"_dim."!3!_c!2!B _F_fF | !2!DED __B,__BB, | %227
 !2!A,_B,A, =G,_FE) |[K:bass]!pp!"^cresc." (!4!_G,3- G,=F,E, | !3!F,2 F, !2!F,=G,A, | %230
 !3!G,2 G, !2!G,A,B, | !5!C2 !4!C !5!C2 !4!C | !5!C2 !4!C !5!C2 !4!C | !5!C2 !4!C !5!C2 !4!C | %234
 !3!_CD!2!C _F2 F | !3!_CD!2!C _F2!f! F |[K:treble]"^͡""_͜" (!4 2!E3-) E=F_G | %237
"_cresc." !3!F2 F !2!F=GA | !3!G2 G !2!GAB | !5!c2 !4!c !5!c2 !4!c | !5!c2 !4!c !5!c2 !4!c | %241
 c2 c c2 c |!<(! _cdc _f2!<)! f |!<(! _cdc _f2!<)! f |!f! !4![=ce]2) z (!5!_f3- | %245
!>(! f3 !5!e3!>)! | e3) (!5!_f3- |!>(! f3 !5!e3!>)! | !5!e3)!<(! (!5!_f3!<)! | !5!__b3 !5!e3 | %250
 !5!e3)!<(! (!5!_f3!<)! | !5!__b3 !5!e3 | !5!e3) !>!!5!_f3 | !>!_f3 !>!!5!=f3 | !>!f3 !>!!5!_g3 | %255
 !>!_g3 !>!!5!=g3 | (!>![B_f=g]ed) (!>!!4!!5![_c=fa]e=d) | %257
 (!>!!4!!5![=c_g=a]fe) (!>!!4!!5![_d=gb]_g_f) | (!>!!4!!5![=d_a=b]_g=f) (!>!!4!!5![e=ac']=g_g) | %259
 (!>!!4!!5![_f_bd']_a=g) (!>!!4!!5![gd'e']be) | !>!!2!!4![ac']2 z!fff! (!1!!4![_ge']f'e' | %261
 !>!!1!!2![fa]ba !>!!1!!4![_fd']e'd' | !>!!3![ec']d'c' !>!!1!!4![_ge']f'e' | %263
 !>!!1!!2![fa]ba !>!!1!!4![_fd']e'd' | !>!!3![ec']d'c' !>!!4![_ge']f'e' | %265
 !>!!2![fa]ba !>!!4![_fd']e'd' | !>!!3![ec']d'c' !>!!4![_ge']f'e' | %267
 !>!!2![fa]ba !>!!4![_fd']!5!e'!3!d' |!sfz! !2!!5![c'a']2) z z2 z | z2 z [GBe]3 | %270
 !fermata![CEAc]6 |] %271
V:2
 z2 z | z6 | z6 | z6 || (A,,A,E, A,,A,E,) | (G,,G,E, F,,F,D,) | (=E,,=E,C, E,,E,C,) | %7
 (_E,,_E,_C, E,,E,C,) | (E,,E,!4!F,, D,,D,!3!F,,) | (C,,C,!2!F,, B,,,B,,F,,) | %10
 (E,,G,!2!E, E,,A,E,) | (E,,G,E, A,,A,E,) | (A,,A,E, A,,A,E,) | (G,,G,E, F,,F,D,) | %14
 (=E,,=E,C, E,,E,C,) | (_E,,_E,_C, E,,E,C,) | (E,,E,!4!F,, D,,D,!3!F,,) | %17
 (C,,C,!2!F,, B,,,B,,F,,) | (E,,G,!2!E, E,,A,E,) | (E,,G,E, A,,A,E,) | !>![E,,E,]3 (!1!_F!3!_CD | %21
 !1!E!3!B,_C !1!D!3!A,B, | !1!_C!3!_G,A, !1!B,!3!_F,G, | A,!3!E,_F, !>!!1!_G,3) | %24
 (!5!_C,!3!E,_F, _G,2) (G, | !5!A,,!3!_C,D, E,2) (E, | !5!_F,,!3!A,,B,, _C,2) (C, | %27
 D,,!3!_F,,_G,, !1!A,,3) | !>![E,,,E,,]3[K:treble] (!1!_f!3!_cd | !1!e!3!B_c d!3!AB | %30
 _c!3!_GA B!3!_FG | A!3!E_F !>!_G3) |[K:bass] z2 D, (!2!!1![__B,_F]2 D,) | %33
 ([__B,_F]2 D,) (!2![_B,F]2 D,) | ([B,E]2 E,) (!3![G,E]2 E,) | !2![A,E]3 [A,,A,]3 | %36
 !>![E,,E,]3 (!1!_F!3!_CD | !1!E!3!B,_C D!3!A,B, | _C!3!_G,A, B,!3!_F,G, | A,!3!E,_F, !>!_G,3) | %40
 (!5!_C,!3!E,_F, !1!_G,2) (G, | !5!A,,!3!_C,D, E,2) (E, | _F,,!3!A,,B,, _C,2) (C, | %43
 D,,!3!_F,,_G,, A,,3) | !>![E,,,E,,]3[K:treble] (!1!_f!3!_cd | e!3!B_c d!3!AB | _c!3!_GA B!3!_FG | %47
 A!3!E_F _G3) |[K:bass] z2 D, (!2![__B,_F]2 D,) | ([__B,_F]2 D,) (!2![_B,F]2 D,) | %50
 ([B,_F]2 D,) (!3![B,F]2 D,) | !2![A,E]3 A,,3 | D,_F!2!A, !4!E,EG, | !3!=F,CA, C,EA, | %54
 D,_FA, !4!_F,DA, | A,,C!4!E, !5!C,E!2!_A, | D,_FA, !4!E,EG, | !3!=F,CA, C,EA, | %58
 D,_FA, !4!_F,D_A, | A,,C!4!E, C,E!2!_A, | D,_FA, !4!E,EG, | !3!=F,CA, C,EA, | D,_FA, !4!_F,DA, | %63
 A,,C!4!E, C,E!2!_A, | D,_FA, !4!E,EG, | !3!=F,CA, C,EA, | D,_FA, !4!_F,DA, | A,,C!4!E, C,EA, | %68
 !arpeggio![C,G,B,=E]2 z[K:treble] (!1!c=B_B | !1!=A_AG !4!_G!1!F_F | %70
[K:bass] _E!1!=D_D !1!C=B,_B, | !1!=A,_A,G, _G,!1!F,_F, | [E,,E,]2) !5!E, (!4!!2![G,D]2 E,) | %73
 (!3![A,C=F]2 E,) (E2 E,) | (!4![G,DF]2 E,) (!1!E2 E,) | (!3![A,C=F]2 E,) (E2 E,) | %76
 !arpeggio![C,G,B,=E]2 z[K:treble] (!1!c=B_B | !1!=A_AG !4!_G!1!F_F | %78
[K:bass] _E!1!=D_D !1!C=B,_B, | !1!=A,_A,G, _G,!1!F,_F, | !5![E,,E,]2) E, (!4!!2![G,D]2 E,) | %81
 (!3![A,C=F]2 E,) (E2 E,) | (!4![G,DF]2 E,) E2 z | z6 | A,,!1!B,!2!A, A,,!1!A,_G, | %85
 !3!D,A,F, A,,CF, | B,,D!3!F, C,C!2!G, | !3!F,CA, !5!_C,_CF, | !4!B,,B,F, !5!_C,_CF, | %89
 !4!B,,B,F, _C,_CF, | _C,_CF, =B,,=B,=E, | =A,,=A,=E, A,,A,E, | __B,,__B,_E, _A,,_A,_G, | %93
 !3!D,A,F, A,,CF, | B,,D!3!F, C,C!2!G, | !3!F,CA, !4!E,C_G, | !5!=D,!1!B,!2!F, !4!_D,=B,F, | %97
 C,CF, =B,,DF, | C,FC C,=EC | F,=EC F,FC | A,,!1!B,!2!A, A,,!1!A,_G, | !3!D,A,F, A,,CF, | %102
 B,,D!3!F, C,C!2!G, | !3!F,CA, !5!_C,_CF, | !4!B,,B,F, !5!_C,_CF, | !4!B,,B,F, _C,_CF, | %106
 _C,_CF, =B,,=B,=E, | =A,,=A,=E, A,,A,E, | __B,,__B,_E, _A,,_A,_G, | !3!D,A,F, A,,CF, | %110
 B,,D!3!F, C,C!2!G, | !3!F,CA, !4!E,C_G, | !5!=D,!1!B,!2!F, !4!_D,=B,F, | C,CF, =B,,DF, | %114
 C,FC C,=EC | C,=EC F,FC | !>!C,2 z[K:treble] F!1!d!2!A | EcG DBF | CAE B,GD |[K:bass] A,FC G,EB, | %120
 F,DA, E,CG, | D,B,F, C,A,E, | B,,G,F, !5!=B,,3 | !4!C, x x4 | !>!C,,2 z[K:treble] fd'a | %125
 ec'g dbf | cae Bgd | Afc GeB | FdA EcG | DBF CAE | B,BF =B,=dG- | G2 z z2 z | %132
[K:bass] A,,!1!B,!2!A, A,,!1!A,_G, | !3!D,A,F, A,,CF, | B,,D!3!F, C,C!2!G, | !3!F,CA, !5!_C,_CF, | %136
 !4!B,,B,F, !5!_C,_CF, | !4!B,,B,F, _C,_CF, | _C,_CF, =B,,=B,=E, | =A,,=A,=E, A,,A,E, | %140
 __B,,__B,_E, _A,,_A,_G, | !3!D,A,F, A,,CF, | B,,D!3!F, C,C!2!G, | !3!F,CA, !4!E,C_G, | %144
 !5!=D,!1!B,!2!F, !4!_D,=B,F, | C,CF, =B,,DF, | C,FC C,=EC | F,=EC F,FC | %148
 [A,,_E,A,]2 z ([D,,A,,D,]3 | [A,,,A,,]2) z (!4!D,!1!A,!3!D, | !4!C,A,!5!C, !4!D,A,!3!=D, | %151
 !2!!1![E,G,]2) z [E,,E,]3 | [A,,E,A,]2 z [D,,A,,D,]2 z | [A,,,A,,]2 z (!4!D,A,!3!D, | %154
 !4!C,A,!5!C, !4!D,A,!3!=D, | !2!!1![E,G,]2) z [E,,E,]3 | [A,,E,A,]2 z ([D,,A,,D,]3 | %157
 [A,,,A,,]2) z (!4!D,A,!3!D, | !4!C,A,!5!C, !4!D,A,!3!=D, | !2!!1![E,G,]2) z [E,,E,]3 | %160
 [A,,E,A,]2 z [D,,A,,D,]2 z | [A,,,A,,]2 z (!4!D,A,!3!D, | !4!C,A,!5!C, !4!D,A,!3!=D, | %163
 !2!!1![E,G,]2) z [E,,E,]2 z |!ped! !>![E,,,E,,]2 z !>![E,A,_C_F]3 | !>![E,A,_C_F]3 !>![E,A,CF]3 | %166
 !>![E,A,_C_F]3 !>![E,A,CF]3 | !>![E,A,_C_F]3!ped-up! !>![E,G,B,E]3 | %168
!ped! !>![E,,E,]3 !>![E,A,_C_F]3 | !>![E,A,_C_F]3 !>![E,A,CF]3 | !>![E,A,_C_F]3 !>![E,A,CF]3 | %171
 !>![E,A,_C_F]3!ped-up! !>![E,G,B,E]3 |!ped! !>![E,,,E,,]2 z !>![E,A,_C_F]3 | %173
 !>![E,A,_C_F]3 !>![E,A,CF]3 | !>![E,A,_C_F]3 !>![E,A,CF]3 | !>![E,A,_C_F]3!ped-up! !>![E,G,B,E]3 | %176
!ped! !>![E,,E,]3 !>![E,A,_C_F]3 | !>![E,A,_C_F]3 !>![E,A,CF]3!ped-up! | !>![E,G,DE]2 z4 | z6 | %180
 (A,,A,E, A,,A,E,) | (G,,G,E, F,,F,D,) | (=E,,=E,D, E,,E,C,) | (_E,,_E,C, E,,E,_C,) | %184
 (E,,E,!4!F,, D,,D,!3!F,,) | (C,,C,F,, B,,,B,,F,,) | (E,,G,!2!E, E,,A,E,) | (E,,G,E, A,,A,E,) | %188
 A,,A,E, A,,A,E, | G,,G,E, F,,F,D, | =E,,=E,D, E,,E,C, | _E,,_E,C, E,,E,_C, | %192
 E,,E,!4!F,, D,,D,!3!F,, | C,,C,F,, B,,,B,,!2!F,, | E,,G,E, E,,A,E, | E,,G,E, A,,A,E, | %196
 !>![E,,E,]3 (!1!_F!3!_CD | !1!E!3!B,_C D!3!A,B, | _C!3!_G,A, B,!3!_F,G, | A,!3!E,_F, _G,3) | %200
 (!5!_C,!3!E,_F, !1!_G,2) (G, | A,,_C,D, E,2) (E, | _F,,A,,B,, _C,2) (C, | D,,_F,,_G,, A,,3) | %204
 !>![E,,,E,,]3[K:treble] (!1!_f!3!_cd | e!3!B_c d!3!AB | _c!3!_GA B!3!_FG | A!3!E_F !>!_G3) | %208
[K:bass] z2 D, (!2!!1![__B,_F]2 D,) | ([__B,_F]2 D,) (!2![_B,F]2 D,) | ([B,E]2 E,) (!3![G,E]2 E,) | %211
 !2![A,E]3 [A,,A,]3 | !>![E,,E,]3 (!1!_F!3!_CD | E!3!B,_C D!3!A,B, | _C!3!_G,A, B,!3!_F,G, | %215
 A,!3!E,_F, _G,3) | (_C,E,_F, _G,2) (G, | A,,_C,D, E,2) (E, | _F,,A,,B,, _C,2) (C, | %219
 D,,_F,,_G,, A,,3) | [E,,,E,,]2 (!4!E,, E,2) (E,, | E,2) (E,, E,2) (E,, | E,2) (E,, E,2) (E,, | %223
 E,2) (E,, E,3) | D,,2 z (!5!D,!4!_F,!2!__B, | !1!_F2) z z2 z | z6 | !3![E,,D,]6 | %228
 A,,,A,,E,, A,,,A,,E,, | A,,,A,,F,, A,,,A,,F,, | A,,,D,_F,, A,,,D,F,, | %231
 A,,,C,!3!E,, A,,,C,!3!=E,, | A,,,C,!2!F,, A,,,C,!3!=E,, | A,,,C,!2!F,, A,,,C,_F,, | %234
 A,,,_C,_F,, =G,,,C,F,, | A,,,_C,_F,, _F,,,C,F,, | A,,, z!p! !2!E, !5!A,,A,E, | A,,A,F, A,,A,F, | %238
 A,,D_F, A,,DF, | A,,C!3!E, A,,C!3!=E, | A,,C!2!F, A,,C!3!=E, | A,,C!2!F, A,,C_F, | %242
 A,,_C_F, =G,,CF, | A,,_C_F, _F,,CF, | A,,=C!4!E, D,_F!2!__B, | D,_F__B, !4!E,D!2!=G, | %246
 A,,C!4!E, D,_F!2!__B, | D,_F__B, !4!E,D!2!=G, | A,,C!4!E, D,_F!2!__B, | D,_F__B, !4!E,D=G, | %250
 A,,C!4!E, D,_F__B, | D,_F__B, !4!E,D=G, | [A,C]2 (!4!E,, !>![E,,E,]2) (!5!=D,, | %253
 !>!!4![E,,E,]2) (=D,, !>![E,,E,]2) (D,, | !>![E,,E,]2) (=D,, !>![E,,E,]2) (D,, | %255
 !>![E,,E,]2) (=D,, !>![E,,E,]2) (D,, | !>![E,,E,]2) (=D,, !>![E,,E,]2) (D,, | %257
 !>![E,,E,]2) (=D,, !>![E,,E,]2) (D,, | !>![E,,E,]2) (=D,, !>![E,,E,]2) (D,, | %259
 !>![E,,E,]2) (=D,, !>![E,,E,]2) z | !wedge![A,,,A,,]2 (!4!A,, A,2) (!5!A,,, | %261
 A,,2) (!4!A,, A,2) (A,,, | A,,2) (A,, A,2) (A,,, | A,,2) (!4!A,, A,2) (A,, | %264
 A,2) (!4!A, A2) (!5!A,, | A,2) (!4!A, A2) (A,, | A,2) (A, A2) (A,, | A,2) (A, A2) ((A,, | %268
 [A,,A,]2)) z z2 z | z2 z [E,,,E,,]3 | !fermata![A,,,A,,]6 |] %271
V:3
 x3 | x6 | x6 | x6 || C6 | x6 | x3 !2!C3 | x3 !2!C3 | (F,!1!=G,!<(!=A, B,!1!=CD!<)! | E2) x4 | x6 | %11
 D3 C3 | C6 | x6 | x3 !2!C3 | x3 !2!_C3 | (F,!1!=G,!<(!=A, B,!1!=CD | E2)!<)! x4 | x6 | D3 C3 | %20
 x6 | x6 | x6 | x _C2 C3- | C3 !2!B,3 |[K:bass] !1!A,3 !1!=G,3 | !1!_F,3 !1!E,3 | !1!D,3 _C,3 | %28
[K:treble] x6 | x6 | x6 | x3 _c3 | !2!B3 !1!__B3 | x6 | x6 | x6 | x6 | x6 | x6 | x _C2 C3- | %40
 C3 !2!B,3 |[K:bass] !1!A,3 !1!=G,3 | !1!_F,3 !1!E,3 | !1!D,3 _C,3 |[K:treble] x6 | x6 | x6 | %47
 x3 _c3 | !2!B3 !1!__B3 | x6 | x3 (D3 | C3) x3 | x6 | x6 | x6 | x6 | x6 | x6 | x6 | x6 | x6 | x6 | %62
 x6 | x6 | x6 | x6 | x6 | A3- A2 c | x6 | x6 | x6 | x6 | x6 | x6 | x6 | x6 | x6 | x6 | x6 | x6 | %80
 x6 | x6 | x6 | x6 | !1!C3 C3 | !1!D3 !1!C3 | !2!F3 !1!=E3 | !1!F3 (!>!!2!_E3 | =D3) (!>!!2!E3 | %89
 =D3) !2!E3 | =D3 !2!D3- | =D3 (!1!^C3 | !2!_D3) C3 | !1!D3 !1!C3 | !2!F3 !1!=E3 | !1!F3 !2!_G3 | %96
 F3 [FA]3 | [FA]3 [FA]3 | !1!A3 [Bc]3 | [Bc]3 [Ac]2 x | !1!C3 C3 | !1!D3 !1!C3 | !2!F3 !1!=E3 | %103
 !1!F3 (!>!!2!E3 | =D3) (!>!!2!E3 | =D3) E3 | =D3 !2!D3- | D3 (^C3 | !2!_D3) C3 | !1!D3 !1!C3 | %110
 !2!F3 !1!=E3 | !1!F3 !2!_G3 | F3 [FA]3 | [FA]3 [FA]3 | !1!A3 [Bc]3 | [Bc]3 [Ac]2 x | C2 x !2!a3 | %117
 c'eg !1!f3 | ace !1!d3 | fAc !1!B3 | dFA !1!G3 | BDF !1!E3 | [DF]3 [=DF]3 | =E3 C3 | %124
 c2 x!8va(! !1!a'3 | c''e'g' !1!f'3 | a'c'e' !1!d'3 | f'ac' !1!b3 | d'fa !1!g3!8va)! | bdf !1!e3 | %130
 [df]3 [=df]3 | =e2 x4 | !1!C3 C3 | !1!D3 !1!C3 | !2!F3 !1!=E3 | !1!F3 (!2!_E3 | =D3) (E3 | %137
 =D3) E3 | =D3 !2!D3- | =D3 !1!^C3- | _D3 C3 | !1!D3 !1!C3 | !2!F3 !1!=E3 | !1!F3 !2!_G3 | %144
 F3 [FA]3 | [FA]3 [FA]3 | !1!A3 [Bc]3 | [Bc]3 [Ac]2 x | C2 x [D_F]3 | [CE]3 !2!=F3 | !1!E3 F3 | %151
 D3 x3 | [CE]2 x [D_F]3 | [CE]3 !2!=F3 | !1!E3 F3 | D3 [DG]3 | [CE]2 x [D_F]3 | [CE]3 !2!=F3 | %158
 !1!E3 F3 | D3 x3 | [CE]2 x [D_F]3 | [CE]3 =F3 | E3 F3 | D2 x4 | x6 | x6 | x6 | x6 | x6 | x6 | x6 | %171
 x6 | x6 | x3!8va(! x3 | x6!8va)! | x6 | x6 | x6 | x6 | x6 | C6 | x6 | G,2 G, !2!C3- | C3 !2!_C3 | %184
 (F,!1!=G,!<(!=A, B,!1!=CD | E2)!<)! x4 | x6 | D3 C3 | C6 | x6 | G,2 G, C3- | C3 _C3 | %192
 (F,!1!=G,!<(!=A, B,!1!=CD | E2)!<)! x4 | x6 | x6 | x6 | x6 | x6 | x _C2 C3- | _C3 B,3 | %201
[K:bass] A,3 =G,3 | _F,3 E,3 | D,3 _C,3 |[K:treble] e3 (!4!d'ab) | (!3!_c'_ga) (!3!b_fg) | %206
 (!3!a(!1!e!1!_f)) (!2!_g!1!de) | x3 _c3 | !2!B3 !1!__B3 | x6 | x3 (D3 | C3) x3 | [Ee]3 !4!d!1!AB | %213
 _c!1!_GA B!1!_FG | x6 | x _C2 C3- | C3 !2!B,3 |[K:bass] !1!A,3 !1!=G,3 | !1!_F,3 !1!E,3 | %219
 !1!D,3 _C,3 |[K:treble] x6 | x6 | x6 | x3 [E_c]3 | !>![_F__B]3- [FB] x2 | x6 | x6 | x6 | %228
[K:bass] !1!=C,6 | !1!D,6 | !1!_F,6 | !1!!2![E,A,]3 [=E,A,]3 | [F,A,]3 [=E,A,]3 | %233
 [F,A,]3 [_F,A,]3 | !1!_F,3 F,3 | _F,3 F,3 |[K:treble] !2 1!=C6 | !1!D6 | !1!_F6 | %239
 !1!!2![EA]3 [=EA]3 | [FA]3 [=EA]3 | [FA]3 [_FA]3 | _F3 F3 | _F3 F3 | E2 x !3!d_c__B | %245
 d_c__B !2!=G_BE | !3!=cBA !3!dc__B | d_c__B !2!=G_BE | !3!=cBA !3!d_c__B | %249
 !2!d!>(!_f__B !2!=G_BE!>)! | !3!=cBA !3!d_c__B | !2!d!>(!_f__B !2!=G_BE!>)! | %252
 !3!=cBA (d"_cresc."_c__B) | (d_c__B) (=d=c=B) | (=d=c=B) (e_dc) | (edc) (_fed) | x6 | x6 | x6 | %259
 x6 | x6 | x6 | x6 | x6 | x6 | x6 | x6 | x6 | x6 | x3 !1![DE]3 | x6 |] %271
V:4
 x3 | x6 | x6 | x6 || x6 | x6 | x6 | x6 | x6 | x6 | x6 | x6 | x6 | x6 | x6 | x6 | x6 | x6 | x6 | %19
 x6 | x6 | x6 | x6 | x6 | x6 |[K:bass] x6 | x6 | x6 |[K:treble] x6 | x6 | x6 | x6 | x6 | x6 | x6 | %35
 x6 | x6 | x6 | x6 | x6 | x6 |[K:bass] x6 | x6 | x6 |[K:treble] x6 | x6 | x6 | x6 | x6 | x6 | x6 | %51
 x6 | x6 | x6 | x6 | x6 | x6 | x6 | x6 | a6- | a6 | x6 | x6 | x6 | x6 | x6 | x6 | x6 | x6 | x6 | %70
 x6 | x6 | x6 | x6 | x6 | x6 | x6 | x6 | x6 | x6 | x6 | x6 | x6 | x6 | x6 | x6 | x6 | x6 | x6 | %89
 x6 | x6 | x6 | x6 | x6 | x6 | x6 | x6 | x6 | x6 | x6 | x6 | x6 | x6 | x6 | x6 | x6 | x6 | x6 | %108
 x6 | x6 | x6 | x6 | x6 | x6 | x6 | x6 | x6 | x6 | x6 | x6 | x6 | x6 | x6 | x6 | x3!8va(! x3 | x6 | %126
 x6 | x6 | x6!8va)! | x6 | x6 | x6 | x6 | x6 | x6 | x6 | x6 | x6 | x6 | x6 | x6 | x6 | x6 | x6 | %144
 x6 | x6 | x6 | x6 | x6 | x6 | x6 | x6 | x6 | x6 | x6 | x6 | x6 | x6 | x6 | x6 | x6 | x6 | x6 | %163
 x6 | x6 | x6 | x6 | x6 | x6 | x6 | x6 | x6 | x6 | x3!8va(! x3 | x6!8va)! | x6 | x6 | x6 | x6 | %179
 x6 | x6 | x6 | x6 | x6 | x6 | x6 | x6 | x6 | x6 | x6 | x6 | x6 | x6 | x6 | x6 | x6 | !>!e6- | e6 | %198
 x6 | x6 | x6 |[K:bass] x6 | x6 | x6 |[K:treble] x6 | x6 | x6 | x6 | x6 | x6 | x6 | x6 | x6 | x6 | %214
 x6 | x6 | x6 |[K:bass] x6 | x6 | x6 |[K:treble] x6 | x6 | x6 | x6 | x6 | x6 | x6 | x6 | %228
[K:bass] x6 | x6 | x6 | x6 | x6 | x6 | x6 | x6 |[K:treble] x6 | x6 | x6 | x6 | x6 | x6 | x6 | x6 | %244
 x6 | x6 | x6 | x6 | x6 | x6 | x6 | x6 | x6 | x6 | x6 | x6 | x6 | x6 | x6 | x6 | x6 | x6 | x6 | %263
 x6 | x6 | x6 | x6 | x6 | x6 | x6 | x6 |] %271
V:5
 x3 | x6 | x6 | x6 || x6 | x6 | x6 | x6 | x6 | x6 | x6 | x6 | x6 | x6 | x6 | x6 | x6 | x6 | x6 | %19
 x6 | x6 | x6 | x6 | x6 | x6 | x6 | x6 | x6 | x3[K:treble] x3 | x6 | x6 | x6 |[K:bass] x6 | x6 | %34
 x6 | x6 | x6 | x6 | x6 | x6 | x6 | x6 | x6 | x6 | x3[K:treble] x3 | x6 | x6 | x6 |[K:bass] x6 | %49
 x6 | x6 | x6 | x6 | x6 | x6 | x6 | x6 | x6 | x6 | x6 | x6 | x6 | x6 | x6 | x6 | x6 | x6 | x6 | %68
 x3[K:treble] x3 | x6 |[K:bass] x6 | x6 | x6 | x6 | x6 | x6 | x3[K:treble] x3 | x6 |[K:bass] x6 | %79
 x6 | x6 | x6 | x6 | x6 | x6 | x6 | x6 | x6 | x6 | x6 | x6 | x6 | x6 | x6 | x6 | x6 | x6 | x6 | %98
 x6 | x6 | x6 | x6 | x6 | x6 | x6 | x6 | x6 | x6 | x6 | x6 | x6 | x6 | x6 | x6 | x6 | x6 | %116
 C,,2 x[K:treble] !4!F3 | !3!E3 !4!D3 | !5!C3 !3!B,3 |[K:bass] !4!A,3 !5!G,3 | !4!F,3 !3!E,3 | %121
 !4!D,3 !5!C,3 | !4!B,,3 =B,,=DG, | C,CG, =E,!1!C,G,, | x3[K:treble] !4!f3 | !3!e3 !4!d3 | %126
 !5!c3 !3!B3 | !4!A3 !5!G3 | !4!F3 !3!E3 | !4!D3 !5!C3 | !4!B,3 !5!=B,3 | !4!C2 x4 |[K:bass] x6 | %133
 x6 | x6 | x6 | x6 | x6 | x6 | x6 | x6 | x6 | x6 | x6 | x6 | x6 | x6 | x6 | x6 | x6 | x6 | x6 | %152
 x6 | x6 | x6 | x6 | x6 | x6 | x6 | x6 | x6 | x6 | x6 | x6 | x6 | x6 | x6 | x6 | x6 | x6 | x6 | %171
 x6 | x6 | x6 | x6 | x6 | x6 | x6 | x6 | x6 | x6 | x6 | x6 | x6 | x6 | x6 | x6 | x6 | x6 | x6 | %190
 x6 | x6 | x6 | x6 | x6 | x6 | x6 | x6 | x6 | x6 | x6 | x6 | x6 | x6 | x3[K:treble] x3 | x6 | x6 | %207
 x6 |[K:bass] x6 | x6 | x6 | x6 | x6 | x6 | x6 | x6 | x6 | x6 | x6 | x6 | x6 | x6 | x6 | x6 | x6 | %225
 x6 | x6 | x6 | x6 | x6 | x6 | x6 | x6 | x6 | x6 | x6 | x6 | x6 | x6 | x6 | x6 | x6 | x6 | x6 | %244
 x6 | x6 | x6 | x6 | x6 | x6 | x6 | x6 | x6 | x6 | x6 | x6 | x6 | x6 | x6 | x6 | x6 | x6 | x6 | %263
 x6 | x6 | x6 | x6 | x6 | x6 | x6 | x6 |] %271

